X: 5
T: The Barley Crop
C: Ian Findlay
P: Tune for "The Geordies' Diamond Reel'"
B: Roy Goldring "14 Social Dances for 2000"
R: reel
Z: 2015 John Chambers <jc:trillian.mit.edu>
M: C
L: 1/8
K: A
cB |\
"A"A2a2 "D"f2a2 | "A"efec "D7"BcdB |\
"A"A2a2 "D"f2a2 | "A"efec "E7"B2cB |
"A"A2a2 "D"f2a2 | "A"efec "D7"BcdB |\
"A"ABce afec | "E7"BdcB "A"A2 :|
|: e2 |\
"A"agae cAce | "A"agae c2ea |\
"Bm"b^abf dBdf | "Bm"b^abf d2fb |
"A"agae cAce | "A"agae c2ea |\
"D"fgaf "E7"ecdB | "A"A2"E7"A2 "A"A2 :|

%%sep 1 1 500
%%sep 1 1 500

